storage/app/icons/phosphoricons/duotone/binary-duotone.svg

<svg xmlns="http://www.w3.org/2000/svg" fill="currentColor" viewBox="0 0 256 256"><path d="M224 48v160a16 16 0 0 1-16 16H48a16 16 0 0 1-16-16V48a16 16 0 0 1 16-16h160a16 16 0 0 1 16 16" opacity=".2"/><path d="M94 24c-22.37 0-38 19.74-38 48s15.63 48 38 48 38-19.74 38-48-15.63-48-38-48m0 80c-17.37 0-22-20.11-22-32s4.63-32 22-32 22 20.11 22 32-4.63 32-22 32m72 32c-22.37 0-38 19.74-38 48s15.63 48 38 48 38-19.74 38-48-15.63-48-38-48m0 80c-17.37 0-22-20.11-22-32s4.63-32 22-32 22 20.11 22 32-4.63 32-22 32M145 49.22a8 8 0 0 1 3.11-10.88l24-13.33A8 8 0 0 1 184 32v80a8 8 0 0 1-16 0V45.6l-12.12 6.73A8 8 0 0 1 145 49.22M104 144v80a8 8 0 0 1-16 0v-66.4l-12.12 6.73a8 8 0 0 1-7.76-14l24-13.33a8 8 0 0 1 11.88 7"/></svg>

<svg xmlns="http://www.w3.org/2000/svg" viewBox="0 0 256 256" fill="currentColor"><path d="M224,48V208a16,16,0,0,1-16,16H48a16,16,0,0,1-16-16V48A16,16,0,0,1,48,32H208A16,16,0,0,1,224,48Z" opacity="0.2"/><path d="M94,24C71.63,24,56,43.74,56,72s15.63,48,38,48,38-19.74,38-48S116.37,24,94,24Zm0,80c-17.37,0-22-20.11-22-32s4.63-32,22-32,22,20.11,22,32S111.37,104,94,104Zm72,32c-22.37,0-38,19.74-38,48s15.63,48,38,48,38-19.74,38-48S188.37,136,166,136Zm0,80c-17.37,0-22-20.11-22-32s4.63-32,22-32,22,20.11,22,32S183.37,216,166,216ZM145,49.22a8,8,0,0,1,3.11-10.88l24-13.33A8,8,0,0,1,184,32v80a8,8,0,0,1-16,0V45.6l-12.12,6.73A8,8,0,0,1,145,49.22ZM104,144v80a8,8,0,0,1-16,0V157.6l-12.12,6.73a8,8,0,0,1-7.76-14l24-13.33A8,8,0,0,1,104,144Z"/></svg>
